papirus/16x16/apps/google-play-music-desktop-player.svg

<?xml version="1.0" encoding="UTF-8" standalone="no"?>
<svg
   xmlns:dc="http://purl.org/dc/elements/1.1/"
   xmlns:cc="http://creativecommons.org/ns#"
   xmlns:rdf="http://www.w3.org/1999/02/22-rdf-syntax-ns#"
   xmlns:svg="http://www.w3.org/2000/svg"
   xmlns="http://www.w3.org/2000/svg"
   xmlns:sodipodi="http://sodipodi.sourceforge.net/DTD/sodipodi-0.dtd"
   xmlns:inkscape="http://www.inkscape.org/namespaces/inkscape"
   x="0px"
   y="0px"
   viewBox="0 0 16 16"
   hola_ext_inject="disabled"
   id="svg2"
   version="1.1"
   inkscape:version="0.91 r13725"
   sodipodi:docname="google-play-music-desktop-player.svg"
   width="16"
   height="16">
  <metadata
     id="metadata54">
    <rdf:RDF>
      <cc:Work
         rdf:about="">
        <dc:format>image/svg+xml</dc:format>
        <dc:type
           rdf:resource="http://purl.org/dc/dcmitype/StillImage" />
        <dc:title></dc:title>
      </cc:Work>
    </rdf:RDF>
  </metadata>
  <defs
     id="defs52" />
  <sodipodi:namedview
     pagecolor="#ffffff"
     bordercolor="#666666"
     borderopacity="1"
     objecttolerance="10"
     gridtolerance="10"
     guidetolerance="10"
     inkscape:pageopacity="0"
     inkscape:pageshadow="2"
     inkscape:window-width="1600"
     inkscape:window-height="847"
     id="namedview50"
     showgrid="false"
     inkscape:zoom="1"
     inkscape:cx="6.3459692"
     inkscape:cy="7.8513177"
     inkscape:window-x="0"
     inkscape:window-y="0"
     inkscape:window-maximized="1"
     inkscape:current-layer="svg2" />
  <linearGradient
     id="a"
     x1="98.985703"
     x2="98.985703"
     y1="183.6666"
     y2="7.9380002"
     gradientUnits="userSpaceOnUse"
     gradientTransform="matrix(0.2279924,0,0,0.22736347,1.4173528,2.1759583)">
    <stop
       offset="0"
       stop-color="#FFF"
       stop-opacity="0"
       id="stop11" />
    <stop
       offset="1"
       stop-color="#FFF"
       stop-opacity="0.1"
       id="stop13" />
  </linearGradient>
  <linearGradient
     id="b"
     x1="104.3169"
     x2="119.2413"
     y1="110.4006"
     y2="136.2504"
     gradientUnits="userSpaceOnUse"
     gradientTransform="matrix(0.22727311,0,0,0.22727311,1.4545378,2.1925796)">
    <stop
       offset="0"
       stop-color="#991700"
       stop-opacity="0"
       id="stop24" />
    <stop
       offset="1"
       stop-color="#991700"
       stop-opacity="0.1"
       id="stop26" />
  </linearGradient>
  <path
     style="fill:#eb4d27;fill-opacity:1"
     inkscape:connector-curvature="0"
     d="M 14.361621,7.1007802 2.5338822,0.20712015 c -0.5053832,-0.2910252 -0.9575681,-0.2637416 -1.2324256,0.009095 l 0,0 C 1.1063964,0.40719998 0.99999997,0.71641427 0.99999997,1.116574 l 0,13.760037 c 0,0.40016 0.11526293,0.709375 0.30145663,0.900359 l 0,0 c 0.2837238,0.281932 0.7270424,0.309215 1.2324256,0.0091 L 14.361621,8.8924053 c 0.851172,-0.4911051 0.851172,-1.2914245 0,-1.791624 z"
     id="path8" />
  <path
     style="opacity:1;fill:#ffd739;fill-opacity:1;stroke:none;stroke-width:1;stroke-linecap:round;stroke-linejoin:round;stroke-miterlimit:4;stroke-dasharray:none;stroke-opacity:1"
     d="M 8 2 C 6.2765958 2 4.7271677 2.730953 3.6328125 3.8945312 A 6 6 0 0 0 3.6171875 3.9101562 C 3.4839912 4.0528184 3.3591475 4.2022806 3.2402344 4.3574219 C 3.1259715 4.5064962 3.0200403 4.6606725 2.9199219 4.8203125 A 6 6 0 0 0 2.8730469 4.8964844 C 2.7834613 5.0441633 2.6998867 5.195896 2.6230469 5.3515625 A 6 6 0 0 0 2.5976562 5.4023438 C 2.5185026 5.5666142 2.447022 5.7340787 2.3828125 5.90625 A 6 6 0 0 0 2.3652344 5.953125 C 2.3060426 6.116016 2.2541181 6.2820501 2.2089844 6.4511719 A 6 6 0 0 0 2.1816406 6.5527344 C 2.1445511 6.7022421 2.1135308 6.8541138 2.0878906 7.0078125 A 6 6 0 0 0 2.0625 7.1796875 C 2.0450554 7.3069084 2.0308224 7.4348205 2.0214844 7.5644531 A 6 6 0 0 0 2 8 A 6 6 0 0 0 2.0507812 8.7285156 C 2.0615791 8.8175179 2.0771455 8.904431 2.0917969 8.9921875 A 6 6 0 0 0 2.1914062 9.4667969 C 2.2126533 9.5511049 2.2310862 9.6359034 2.2558594 9.71875 A 6 6 0 0 0 2.4746094 10.335938 A 6 6 0 0 0 2.4785156 10.34375 C 2.5197321 10.440717 2.5691406 10.532681 2.6152344 10.626953 A 6 6 0 0 0 2.7929688 10.96875 C 2.8504762 11.069391 2.9115497 11.166791 2.9746094 11.263672 A 6 6 0 0 0 3.1972656 11.580078 C 3.2596449 11.663611 3.3201703 11.748031 3.3867188 11.828125 A 6 6 0 0 0 3.7929688 12.269531 A 6 6 0 0 0 3.8242188 12.302734 C 3.9021144 12.378373 3.9864624 12.446221 4.0683594 12.517578 A 6 6 0 0 0 4.3457031 12.748047 C 4.4438304 12.823708 4.5436763 12.895258 4.6464844 12.964844 A 6 6 0 0 0 4.9199219 13.136719 C 4.9953891 13.182074 5.0649993 13.235263 5.1425781 13.277344 C 5.1597881 13.286679 5.1745497 13.283275 5.1914062 13.291016 A 6 6 0 0 0 6.1210938 13.693359 L 13.884766 9.1699219 A 6 6 0 0 0 14 8 C 14 4.6862915 11.313708 2 8 2 z "
     id="path4152" />
  <circle
     style="fill:#ff8c00"
     cx="8"
     cy="8"
     id="circle21"
     r="3" />
</svg>

<?xml version="1.0" encoding="UTF-8" standalone="no"?>
<svg id="svg2" xmlns:rdf="http://www.w3.org/1999/02/22-rdf-syntax-ns#" xmlns="http://www.w3.org/2000/svg" hola_ext_inject="disabled" height="16" viewBox="0 0 16 16" width="16" version="1.1" y="0px" x="0px" xmlns:cc="http://creativecommons.org/ns#" xmlns:dc="http://purl.org/dc/elements/1.1/">
 <metadata id="metadata54">
  <rdf:RDF>
   <cc:Work rdf:about="">
    <dc:format>image/svg+xml</dc:format>
    <dc:type rdf:resource="http://purl.org/dc/dcmitype/StillImage"/>
    <dc:title/>
   </cc:Work>
  </rdf:RDF>
 </metadata>
 <path id="path8" fill="#eb4d27" d="m14.362 7.1008-11.828-6.8937c-0.50538-0.29103-0.95757-0.26374-1.2324 0.009095-0.1952 0.191-0.3016 0.50021-0.3016 0.9004v13.76c0 0.40016 0.11526 0.70938 0.30146 0.90036 0.28372 0.28193 0.72704 0.30922 1.2324 0.0091l11.828-6.8936c0.85117-0.49111 0.85117-1.2914 0-1.7916z"/>
 <path id="path4152" d="m8 2c-1.7234 0-3.2728 0.731-4.3672 1.8945a6 6 0 0 0 -0.0156 0.0157c-0.1332 0.1426-0.2581 0.2921-0.377 0.4472-0.1142 0.1491-0.2202 0.3033-0.3203 0.4629a6 6 0 0 0 -0.0469 0.0762c-0.0895 0.1477-0.1731 0.2994-0.25 0.4551a6 6 0 0 0 -0.0253 0.0507c-0.0792 0.1643-0.1507 0.3318-0.2149 0.5039a6 6 0 0 0 -0.0176 0.0469c-0.0592 0.1629-0.1111 0.329-0.1562 0.4981a6 6 0 0 0 -0.0274 0.1015c-0.037 0.1495-0.0681 0.3014-0.0937 0.4551a6 6 0 0 0 -0.0254 0.1719c-0.0174 0.1272-0.0317 0.2551-0.041 0.3848a6 6 0 0 0 -0.0215 0.4355 6 6 0 0 0 0.0508 0.7285c0.0108 0.089 0.0263 0.1759 0.041 0.2637a6 6 0 0 0 0.0996 0.4746c0.0213 0.0843 0.0397 0.1691 0.0645 0.252a6 6 0 0 0 0.2187 0.6172 6 6 0 0 0 0.0039 0.008c0.0412 0.097 0.0906 0.189 0.1367 0.283a6 6 0 0 0 0.1778 0.342c0.0575 0.1 0.1185 0.198 0.1816 0.295a6 6 0 0 0 0.2227 0.316c0.0623 0.084 0.1229 0.168 0.1894 0.248a6 6 0 0 0 0.4063 0.442 6 6 0 0 0 0.0312 0.033c0.0779 0.075 0.1623 0.143 0.2442 0.215a6 6 0 0 0 0.2773 0.23c0.0981 0.076 0.198 0.147 0.3008 0.217a6 6 0 0 0 0.2734 0.172c0.0755 0.045 0.1451 0.098 0.2227 0.14 0.0172 0.01 0.0319 0.006 0.0488 0.014a6 6 0 0 0 0.9297 0.402l7.7639-4.5231a6 6 0 0 0 0.115 -1.1699c0-3.3137-2.686-6-6-6z" fill="#ffd739"/>
 <circle id="circle21" cy="8" cx="8" r="3" fill="#ff8c00"/>
</svg>
